gama.ui.shared/icons_svg/light/generic/menu.copy.svg

<svg height="25" viewBox="-853.011 -3654.814 25 25" width="25" xmlns="http://www.w3.org/2000/svg"><g fill="none"><path d="m-848.6715-3654.3143h16.32c2.1208 0 3.84 1.7193 3.84 3.84v16.32c0 2.1208-1.7192 3.84-3.84 3.84h-16.32c-2.1208 0-3.84-1.7192-3.84-3.84v-16.32c0-2.1207 1.7192-3.84 3.84-3.84z" fill="#fff"/><path d="m-848.6715-3654.3143h16.32c2.1208 0 3.84 1.7193 3.84 3.84v16.32c0 2.1208-1.7192 3.84-3.84 3.84h-16.32c-2.1208 0-3.84-1.7192-3.84-3.84v-16.32c0-2.1207 1.7192-3.84 3.84-3.84z" stroke="#000" stroke-linecap="round" stroke-linejoin="round" stroke-width=".25"/><path d="m-844.067-3646.7587v.8887h-1.3334c-.7377 0-1.3333.5957-1.3333 1.3335v8c0 .7378.5956 1.3335 1.3333 1.3335h6.2223c.7377 0 1.3333-.5957 1.3333-1.3335v-1.3335h.8889v1.3335c0 1.2265-.9956 2.2222-2.2222 2.2222h-6.2223c-1.2266 0-2.2222-.9957-2.2222-2.2222v-8c0-1.2265.9956-2.2222 2.2222-2.2222zm7.1111-2.6667h-4.8889c-.7378 0-1.3333.5954-1.3333 1.3334v8c0 .7377.5955 1.3333 1.3333 1.3333h6.2222c.7378 0 1.3333-.5956 1.3333-1.3333v-6.6667h-2.2222c-.2489 0-.4444-.1956-.4444-.4443zm3.5555 2.2489v7.0845c0 1.2266-.9955 2.222-2.2222 2.222h-6.2222c-1.2267 0-2.2222-.9954-2.2222-2.222v-8c0-1.2267.9955-2.2223 2.2222-2.2223h5.30665c.11555 0 .24.0356.33775.1333l2.6667 2.6667c.0978.0978.1333.2223.1333.3378zm-2.6666-.4711h1.1466l-1.1466-1.1467zm-4.8889 6.2222c-.2489 0-.4445-.1956-.4445-.4446 0-.2487.1956-.4443.4445-.4443h1.7778c.2488 0 .4444.1956.4444.4443 0 .249-.1956.4446-.4444.4446zm0-1.7776c-.2489 0-.4445-.1957-.4445-.4446s.1956-.4444.4445-.4444h4.4444c.2489 0 .4445.1955.4445.4444s-.1956.4446-.4445.4446zm0-1.778c-.2489 0-.4445-.1955-.4445-.4444s.1956-.4446.4445-.4446h4.4444c.2489 0 .4445.1957.4445.4446s-.1956.4444-.4445.4444z" fill="#5c76a1"/></g></svg>

<?xml version="1.0" encoding="UTF-8" standalone="no"?>
<!DOCTYPE svg PUBLIC "-//W3C//DTD SVG 1.1//EN" "http://www.w3.org/Graphics/SVG/1.1/DTD/svg11.dtd">
<svg version="1.1" xmlns="http://www.w3.org/2000/svg" xmlns:xl="http://www.w3.org/1999/xlink" xmlns:dc="http://purl.org/dc/elements/1.1/" viewBox="-853.0115 -3654.8143 25 25" width="25" height="25">
  <defs/>
  <g id="SOURCES" stroke-dasharray="none" fill="none" stroke="none" fill-opacity="1" stroke-opacity="1">
    <title>SOURCES</title>
    <g id="SOURCES_Calque_2">
      <title>Calque 2</title>
      <g id="Graphic_9240">
        <path d="M -848.6715 -3654.3143 L -832.3515 -3654.3143 C -830.2307 -3654.3143 -828.5115 -3652.595 -828.5115 -3650.4743 L -828.5115 -3634.1543 C -828.5115 -3632.0335 -830.2307 -3630.3143 -832.3515 -3630.3143 L -848.6715 -3630.3143 C -850.7923 -3630.3143 -852.5115 -3632.0335 -852.5115 -3634.1543 L -852.5115 -3650.4743 C -852.5115 -3652.595 -850.7923 -3654.3143 -848.6715 -3654.3143 Z" fill="white"/>
        <path d="M -848.6715 -3654.3143 L -832.3515 -3654.3143 C -830.2307 -3654.3143 -828.5115 -3652.595 -828.5115 -3650.4743 L -828.5115 -3634.1543 C -828.5115 -3632.0335 -830.2307 -3630.3143 -832.3515 -3630.3143 L -848.6715 -3630.3143 C -850.7923 -3630.3143 -852.5115 -3632.0335 -852.5115 -3634.1543 L -852.5115 -3650.4743 C -852.5115 -3652.595 -850.7923 -3654.3143 -848.6715 -3654.3143 Z" stroke="black" stroke-linecap="round" stroke-linejoin="round" stroke-width=".25"/>
      </g>
      <g id="Group_9276">
        <title>copy</title>
        <g id="Graphic_9277">
          <path d="M -844.067 -3646.7587 L -844.067 -3645.87 L -845.4004 -3645.87 C -846.1381 -3645.87 -846.7337 -3645.2743 -846.7337 -3644.5365 L -846.7337 -3636.5365 C -846.7337 -3635.7987 -846.1381 -3635.203 -845.4004 -3635.203 L -839.1781 -3635.203 C -838.4404 -3635.203 -837.8448 -3635.7987 -837.8448 -3636.5365 L -837.8448 -3637.87 L -836.9559 -3637.87 L -836.9559 -3636.5365 C -836.9559 -3635.31 -837.9515 -3634.3143 -839.1781 -3634.3143 L -845.4004 -3634.3143 C -846.627 -3634.3143 -847.6226 -3635.31 -847.6226 -3636.5365 L -847.6226 -3644.5365 C -847.6226 -3645.763 -846.627 -3646.7587 -845.4004 -3646.7587 Z M -836.9559 -3649.4254 L -841.8448 -3649.4254 C -842.5826 -3649.4254 -843.1781 -3648.83 -843.1781 -3648.092 L -843.1781 -3640.092 C -843.1781 -3639.3543 -842.5826 -3638.7587 -841.8448 -3638.7587 L -835.6226 -3638.7587 C -834.8848 -3638.7587 -834.2893 -3639.3543 -834.2893 -3640.092 L -834.2893 -3646.7587 L -836.5115 -3646.7587 C -836.7604 -3646.7587 -836.9559 -3646.9543 -836.9559 -3647.203 Z M -833.4004 -3647.1765 L -833.4004 -3640.092 C -833.4004 -3638.8654 -834.3959 -3637.87 -835.6226 -3637.87 L -841.8448 -3637.87 C -843.0715 -3637.87 -844.067 -3638.8654 -844.067 -3640.092 L -844.067 -3648.092 C -844.067 -3649.3187 -843.0715 -3650.3143 -841.8448 -3650.3143 L -836.53815 -3650.3143 C -836.4226 -3650.3143 -836.29815 -3650.2787 -836.2004 -3650.181 L -833.5337 -3647.5143 C -833.4359 -3647.4165 -833.4004 -3647.292 -833.4004 -3647.1765 Z M -836.067 -3647.6476 L -834.9204 -3647.6476 L -836.067 -3648.7943 Z M -840.9559 -3641.4254 C -841.2048 -3641.4254 -841.4004 -3641.621 -841.4004 -3641.87 C -841.4004 -3642.1187 -841.2048 -3642.3143 -840.9559 -3642.3143 L -839.1781 -3642.3143 C -838.9293 -3642.3143 -838.7337 -3642.1187 -838.7337 -3641.87 C -838.7337 -3641.621 -838.9293 -3641.4254 -839.1781 -3641.4254 Z M -840.9559 -3643.203 C -841.2048 -3643.203 -841.4004 -3643.3987 -841.4004 -3643.6476 C -841.4004 -3643.8965 -841.2048 -3644.092 -840.9559 -3644.092 L -836.5115 -3644.092 C -836.2626 -3644.092 -836.067 -3643.8965 -836.067 -3643.6476 C -836.067 -3643.3987 -836.2626 -3643.203 -836.5115 -3643.203 Z M -840.9559 -3644.981 C -841.2048 -3644.981 -841.4004 -3645.1765 -841.4004 -3645.4254 C -841.4004 -3645.6743 -841.2048 -3645.87 -840.9559 -3645.87 L -836.5115 -3645.87 C -836.2626 -3645.87 -836.067 -3645.6743 -836.067 -3645.4254 C -836.067 -3645.1765 -836.2626 -3644.981 -836.5115 -3644.981 Z" fill="#5c76a1"/>
        </g>
      </g>
    </g>
  </g>
</svg>
